X:108
T: EIN JAEGER  ZOG ZU WALDE
N: B0596
O: Europa, Mitteleuropa, Deutschland, Rheinland, Thueringen
R: Staende -, Jaeger - Lied; Liebe
M: 6/8
L: 1/16
K: D
A2 | A4F2d4c2 | c6B4
GE | D4A,2F4E2 | D4z6
A2 | A4F2d4c2 | c6B4
GE | D4A,2F4E2 | D4z6
A2 | A4G2E2F2G2 | A4F2D4
d2 | c4B2A4^G2 | F4BAA4
A2 | A4F2d4c2 | c6B4
GE | D4A,2F4E2 | D4z6

@@@ Tune index: 2326
